build/system/PowerOutline.svg

<svg xmlns="http://www.w3.org/2000/svg" fill="none" viewBox="0 0 24 24" focusable="false"><path d="M0 0H24V24H0z"/><path fill="#74767B" fill-rule="evenodd" d="M12.65 4.63285C12.65 4.27386 12.359 3.98285 12 3.98285C11.641 3.98285 11.35 4.27386 11.35 4.63285L11.35 10.3401C11.35 10.699 11.641 10.9901 12 10.9901C12.359 10.9901 12.65 10.699 12.65 10.3401L12.65 4.63285ZM9.50415 5.88149C9.50415 5.41471 9.0419 5.09008 8.62519 5.3004C6.17815 6.53548 4.5 9.07178 4.5 12C4.5 16.1422 7.85786 19.5 12 19.5C16.1421 19.5 19.5 16.1422 19.5 12C19.5 9.11156 17.8671 6.60446 15.4741 5.35146C15.0565 5.1328 14.5867 5.45792 14.5867 5.9293C14.5867 6.19408 14.7425 6.43173 14.9748 6.55896C16.8968 7.61201 18.2 9.65383 18.2 12C18.2 15.4242 15.4242 18.2 12 18.2C8.57583 18.2 5.8 15.4242 5.8 12C5.8 9.62077 7.1402 7.55453 9.10686 6.51503C9.34401 6.38969 9.50415 6.14973 9.50415 5.88149Z"/></svg>

<svg xmlns="http://www.w3.org/2000/svg" fill="none" viewBox="0 0 24 24" focusable="false"><path fill="#74767B" fill-rule="evenodd" d="M12 3.98c.35 0 .64.29.64.65v5.71c0 .35-.29.65-.64.65-.36 0-.65-.3-.65-.65V4.63c0-.36.29-.65.65-.65m-2.5 1.9c0-.47-.46-.79-.88-.58A7.48 7.48 0 0 0 4.5 12c0 4.14 3.35 7.5 7.5 7.5 4.14 0 7.5-3.36 7.5-7.5 0-2.89-1.64-5.4-4.03-6.65-.42-.22-.89.1-.89.57 0 .27.16.51.39.63A6.23 6.23 0 0 1 18.2 12a6.205 6.205 0 0 1-12.41 0c0-2.38 1.35-4.45 3.31-5.49.24-.13.4-.37.4-.63"/></svg>
